projects/flag-game/flags/Central African Republic.svg

<svg viewBox="0 0 1000 667" xmlns="http://www.w3.org/2000/svg" xmlns:xlink="http://www.w3.org/1999/xlink"><clipPath id="a"><path d="m0 500h1000v166.71875h-1000zm0 0"/></clipPath><clipPath id="b"><path d="m416 0h168v666.71875h-168zm0 0"/></clipPath><g fill-rule="evenodd"><path d="m0 0h1000v166.667969h-1000zm0 0" fill="#003082"/><path d="m0 166.667969h1000v166.664062h-1000zm0 0" fill="#fff"/><path d="m0 333.332031h1000v166.667969h-1000zm0 0" fill="#289728"/></g><g clip-path="url(#a)"><path d="m0 500h1000v166.667969h-1000zm0 0" fill="#ffce00" fill-rule="evenodd"/></g><g clip-path="url(#b)"><path d="m416.667969 0h166.664062v666.667969h-166.664062zm0 0" fill="#d21034" fill-rule="evenodd"/></g><path d="m166.667969 15.496094 16.835937 51.820312h54.496094l-44.085938 32.035156 16.839844 51.820313-44.085937-32.03125-44.085938 32.03125 16.835938-51.820313-44.085938-32.035156h54.496094zm0 0" fill="#ffce00" fill-rule="evenodd"/></svg>

<?xml version="1.0" encoding="UTF-8"?>
<svg xmlns="http://www.w3.org/2000/svg" xmlns:xlink="http://www.w3.org/1999/xlink" viewBox="0 0 1000 667" version="1.1">
<defs>
<clipPath id="clip1">
  <path d="M 0 500 L 1000 500 L 1000 666.71875 L 0 666.71875 Z M 0 500 "/>
</clipPath>
<clipPath id="clip2">
  <path d="M 416 0 L 584 0 L 584 666.71875 L 416 666.71875 Z M 416 0 "/>
</clipPath>
</defs>
<g id="surface279">
<path style=" stroke:none;fill-rule:evenodd;fill:rgb(0%,18.823242%,50.979614%);fill-opacity:1;" d="M 0 0 L 1000 0 L 1000 166.667969 L 0 166.667969 Z M 0 0 "/>
<path style=" stroke:none;fill-rule:evenodd;fill:rgb(99.998474%,99.998474%,99.998474%);fill-opacity:1;" d="M 0 166.667969 L 1000 166.667969 L 1000 333.332031 L 0 333.332031 Z M 0 166.667969 "/>
<path style=" stroke:none;fill-rule:evenodd;fill:rgb(15.686035%,59.214783%,15.686035%);fill-opacity:1;" d="M 0 333.332031 L 1000 333.332031 L 1000 500 L 0 500 Z M 0 333.332031 "/>
<g clip-path="url(#clip1)" clip-rule="nonzero">
<path style=" stroke:none;fill-rule:evenodd;fill:rgb(99.998474%,80.783081%,0%);fill-opacity:1;" d="M 0 500 L 1000 500 L 1000 666.667969 L 0 666.667969 Z M 0 500 "/>
</g>
<g clip-path="url(#clip2)" clip-rule="nonzero">
<path style=" stroke:none;fill-rule:evenodd;fill:rgb(82.351685%,6.274414%,20.391846%);fill-opacity:1;" d="M 416.667969 0 L 583.332031 0 L 583.332031 666.667969 L 416.667969 666.667969 Z M 416.667969 0 "/>
</g>
<path style=" stroke:none;fill-rule:evenodd;fill:rgb(99.998474%,80.783081%,0%);fill-opacity:1;" d="M 166.667969 15.496094 L 183.503906 67.316406 L 238 67.316406 L 193.914062 99.351562 L 210.753906 151.171875 L 166.667969 119.140625 L 122.582031 151.171875 L 139.417969 99.351562 L 95.332031 67.316406 L 149.828125 67.316406 Z M 166.667969 15.496094 "/>
</g>
</svg>
